app/images/angle-left-solid.svg

<svg xmlns="http://www.w3.org/2000/svg" width="9px" height="14px" viewBox="0 0 9 14" version="1.1"><g><path d="M 6.75 12.25 C 6.460938 12.25 6.175781 12.164062 5.953125 11.992188 L 0.328125 7.617188 C -0.109375 7.277344 -0.109375 6.722656 0.328125 6.382812 L 5.953125 2.007812 C 6.394531 1.664062 7.105469 1.664062 7.546875 2.007812 C 7.984375 2.347656 7.984375 2.902344 7.546875 3.242188 L 2.714844 7 L 7.546875 10.757812 C 7.984375 11.097656 7.984375 11.652344 7.546875 11.996094 C 7.328125 12.164062 7.039062 12.25 6.75 12.25 Z M 6.75 12.25 "/></g></svg>

<svg xmlns="http://www.w3.org/2000/svg" width="9" height="14"><path d="M6.75 12.25c-.29 0-.574-.086-.797-.258L.328 7.617c-.437-.34-.437-.894 0-1.234l5.625-4.375c.442-.344 1.152-.344 1.594 0 .437.34.437.894 0 1.234L2.715 7l4.832 3.758c.437.34.437.894 0 1.238a1.32 1.32 0 01-.797.254zm0 0"/></svg>
